!!!OTL: Falscher Sinn (81b), S. 222f
!!!id: T0238
**kern
*clefG2
*k[f#c#]
*D:
{8d
8f#
=1
4a
4a
4a
8g
8e
=2
4f#
4f#
4e}
=3
{4e
=4
4f#
4f#
4g
4b
=5
4a}
2r
=6
{4a
=7
4dd
4dd
8dd
8cc#
8b
8a
=8
2b
4a}
4r
=9
{4g
8b
8g
4f#}
=10
{8a
8a
=11
4b
8a
8g
4f#
4e
=12
2d}
4r
==
*-
!!!minrhy: 8
!!!meters: 4/4 ]  ZZ[5
!!!cut: Falscher Sinn (81b), S. 222f
!!!reg: Luxemburg
!!!trd: Singendes Volk, Esch-Alzette 1937 posth.
!!!rhy1: XX  X_X_X_XX  X_X_X_
!!!rhy2: X_  X_X_X_X_  X_0__
!!!key: T0238  08  D 4/4 ]  ZZ[5
!!!mod: HEPTATONIK IONISCH]  AMBITUS[8
!!!kad: 25531
!!!akz: 5532_345_+1+165_3_631_
!!!fot: 'a__b__as'c__d__
!!!for: 'a__b__c__d__e__
!!!fok: '^a_/__^__\__\__
!! PHRAS[AUFTAKTIG]
!!!fkt: Liebeslieder
!!!bem1: Heffingen, Anna Kimmel, 10,3,1933
!!!bem2: (81c)- StraPen, fff Witry, 6.12.1932
!! THILL, Mathias:
!! PR[21] 2K[6] 2G[16] 3K[3] 3G[0] 4A[1] 4Ü[0] 5A[3] 6K[1] 6G[1]
!! 7K[3] 7G[0] 8A[0] MEHR[0] SI[36] ABS[67] SR[22] SP[13]
!! ST[12] 2k[10] 2g[21] 3k[4] 3g[0] 4d[3] 4ü[0] 5d[1] 6k[0] 6g[3]
!! 7k[0] 7g[0] 8d[0] mehr[0] si[43] dm[-7] sr[31] sp[12]
!! 1F[8] 2F[74] 3F[11] 4F[0] LF[0] 2P[5] 3P[1] 4P[0] TRI[0] DF[5] AB[73]
!! TF[0] U3K[0] U3[0] U4[0] U4Ü[0] U5[0] U6K[0] U6[0] U7K[0] U7[0]
!! N1[0] N2K[0] N2[0] N3K[0] N3[3] N4[1] N4Ü[0] N5[24] N6K[0] N6[10]
!!!n7k: 0] N7[7] O1[9] O2K[0] O2[18] O3K[0] O3[19] HÖ[9
